!!!COM: Vivaldi, Antonio
**kern	**dynam	**kern	**dynam	**kern	**dynam	**kern	**dynam
*staff5	*staff5	*staff3	*staff3	*staff2	*staff2	*staff1	*staff1
=1-	=1-	=1-	=1-	=1-	=1-	=1-	=1-
*clefF4	*clefF4	*clefF4	*clefF4	*clefG2	*clefG2	*clefG2	*clefG2
*k[b-]	*k[b-]	*k[b-]	*k[b-]	*k[b-]	*k[b-]	*k[b-]	*k[b-]
*met(C)	*met(C)	*met(C)	*met(C)	*met(C)	*met(C)	*met(C)	*met(C)
*M4/4	*M4/4	*M4/4	*M4/4	*M4/4	*M4/4	*M4/4	*M4/4
4.G\	f	4.G\	f	4r	.	2r	.
.	.	.	.	4g/	f	.	.
8A\	.	8A\	.	.	.	.	.
4B-\	.	4B-\	.	[2dd\	.	4r	.
4Bn\	.	4Bn\	.	.	.	4g/	f
=2	=2	=2	=2	=2	=2	=2	=2
4.c\	.	4.c\	.	4dd\]	.	2.ee-\	.
.	.	.	.	4cc\	.	.	.
8B-\	.	8B-\	.	.	.	.	.
4A\	.	4A\	.	[2ff\	.	.	.
4B-\	.	4B-\	.	.	.	4dd\	.
=3	=3	=3	=3	=3	=3	=3	=3
2G\	.	2G\	.	4ff\]	.	4.bb-\	.
.	.	.	.	2ee-\	.	.	.
.	.	.	.	.	.	8ccc\	.
2F#\	.	2F#\	.	.	.	[2aa\	.
.	.	.	.	(8dd\L	.	.	.
.	.	.	.	8cc\J)	.	.	.
=4	=4	=4	=4	=4	=4	=4	=4
2G\	.	2G\	.	4b-\	.	4aa\]	.
.	.	.	.	4bn\	.	(8gg\L	.
.	.	.	.	.	.	8ff\J)	.
2C/	.	2C/	.	(8cc/L	.	4ee-\	.
.	.	.	.	8g/J)	.	.	.
.	.	.	.	[4cc\	.	(8aa\L	.
.	.	.	.	.	.	8gg\J)	.
=5	=5	=5	=5	=5	=5	=5	=5
4D\	.	4D\	.	4cc\]	.	4ff#\	.
(8E-/L	.	(8E-/L	.	4b-\	.	2gg\	.
8BB-/J)	.	8BB-/J)	.	.	.	.	.
4C/	.	4C/	.	2a/	.	.	.
4D\	.	4D\	.	.	.	4ff#\	.
=6	=6	=6	=6	=6	=6	=6	=6
4G\	.	4G\	.	8g/	.	4gg\	.
.	.	.	.	4dd\	.	.	.
4F#\	.	4F#\	.	.	.	4r	.
.	.	.	.	8cc\	.	.	.
4G\	.	4G\	.	4b-\	.	8r	.
.	.	.	.	.	.	4gg\	.
4BBn/	.	4BBn/	.	4dd\	.	.	.
.	.	.	.	.	.	8ff\	.
=7	=7	=7	=7	=7	=7	=7	=7
4C/	.	4C/	.	8g/	.	4ee-\	.
.	.	.	.	4cc\	.	.	.
4En\	.	4En\	.	.	.	4gg\	.
.	.	.	.	8b-\	.	.	.
4F\	.	4F\	.	4a/	.	8cc\	.
.	.	.	.	.	.	4ff\	.
4AA/	.	4AA/	.	4cc\	.	.	.
.	.	.	.	.	.	8ee-\	.
=8	=8	=8	=8	=8	=8	=8	=8
4BB-/	.	4BB-/	.	4f/	.	8dd\L	.
.	.	.	.	.	.	(16bb-\L	.
.	.	.	.	.	.	16aa\JJ)	.
4B-\	.	4B-\	.	4d/	.	8gg\L	.
.	.	.	.	.	.	(16aa\L	.
.	.	.	.	.	.	16bb-\JJ)	.
(8A\L	.	4G\	.	4e/	.	4cc#\	.
8G\J)	.	.	.	.	.	.	.
4F\	.	4F\	.	8a/L	.	[4dd\	.
.	.	.	.	(16b-/L	.	.	.
.	.	.	.	16a/JJ)	.	.	.
=9	=9	=9	=9	=9	=9	=9	=9
4E\	.	4E\	.	8.g/L	.	8dd\L]	.
.	.	.	.	.	.	(16ee\L	.
.	.	.	.	16f/Jk	.	16dd\JJ)	.
4A\	.	4A\	.	16e/LL	.	8.cc#\L	.
.	.	.	.	16f/	.	.	.
.	.	.	.	16g/	.	.	.
.	.	.	.	16a/JJ	.	16dd\Jk	.
4.D\	.	4.D\	.	4f/	.	4dd\	.
.	.	.	.	4d/	.	4r	.
8E\	.	8E\	.	.	.	.	.
=10	=10	=10	=10	=10	=10	=10	=10
4F\	.	4F\	.	2.a/	.	4r	.
4F#\	.	4F#\	.	.	.	4d/	.
4.G\	.	4.G\	.	.	.	[2b-\	.
.	.	.	.	4g/	.	.	.
8Fn\	.	8Fn\	.	.	.	.	.
=11	=11	=11	=11	=11	=11	=11	=11
4E-\	.	4E-\	.	2.cc\	.	4b-\]	.
4F\	.	4F\	.	.	.	4a/	.
2BB-/	.	2BB-/	.	.	.	[2dd\	.
.	.	.	.	4b-\	.	.	.
=12	=12	=12	=12	=12	=12	=12	=12
2C/	.	2C/	.	2.ee-\	.	4dd\]	.
.	.	.	.	.	.	4cc\	.
2D\	.	2D\	.	.	.	2ff#\	.
.	.	.	.	8dd\L	.	.	.
.	.	.	.	8cc\J	.	.	.
=13	=13	=13	=13	=13	=13	=13	=13
*	*	*	*	*k[]	*k[]	*	*
4E-\	.	4E-\	.	8b-/L	.	4gg\	.
.	.	.	.	8g/J	.	.	.
8BB-/L	.	8BB-/L	.	[4gg\	.	8r	.
8C/J	.	8C/J	.	.	.	8bb-\	.
4D\	.	4D\	.	8gg\]	.	8aa\L	.
.	.	.	.	4ff\	.	8dd\J	.
4E-\	.	4E-\	.	.	.	8gg\L	.
.	.	.	.	[8ee-\	.	(16.aa\L	.
.	.	.	.	.	.	32gg\JJk)	.
=14	=14	=14	=14	=14	=14	=14	=14
4B-\	.	4B-\	.	8ee-\]	.	8ff\L	.
.	.	.	.	4dd\	.	8b-\J	.
4c\	.	4c\	.	.	.	8ee-\L	.
.	.	.	.	4cc\	.	(16.ff\L	.
.	.	.	.	.	.	32ee-\JJk)	.
8F#\L	.	8F#\L	.	.	.	8.dd\L	.
8G\	.	8G\	.	8b\	.	.	.
.	.	.	.	.	.	16gg\Jk	.
8d\	.	8d\	.	8.a/L	.	8.ff#\L	.
8D\J	.	8D\J	.	.	.	.	.
.	.	.	.	16g/Jk	.	16gg\Jk	.
=15	=15	=15	=15	=15	=15	=15	=15
4G\	.	4G\	.	4g/	.	8gg\L	.
.	.	.	.	.	.	8g\J	.
8BB-/L	p	8BB-/L	p	8r	.	[4gg\	p
8C/J	.	8C/J	.	8bb-\	p	.	.
4D\	.	4D\	.	8aa\L	.	8gg\]	.
.	.	.	.	8dd\J	.	4ff\	.
4E-\	.	4E-\	.	8gg\L	.	.	.
.	.	.	.	(16.aa\L	.	[8ee-\	.
.	.	.	.	32gg\JJk)	.	.	.
=16	=16	=16	=16	=16	=16	=16	=16
*	*	*	*	*k[b-]	*k[b-]	*	*
4B-\	.	4B-\	.	8ff\L	.	8ee-\]	.
.	.	.	.	8b-\J	.	4dd\	.
4c\	.	4c\	.	8ee-\L	.	.	.
.	.	.	.	(16.ff\L	.	4cc\	.
.	.	.	.	32ee-\JJk)	.	.	.
8F#\L	.	8F#\L	.	8.dd\L	.	.	.
8G\	.	8G\	.	.	.	8b-\	.
.	.	.	.	16gg\Jk	.	.	.
8d\	.	8d\	.	8.ff#\L	.	8.a/L	.
8D\J	.	8D\J	.	.	.	.	.
.	.	.	.	16gg\Jk	.	16g/Jk	.
=17	=17	=17	=17	=17	=17	=17	=17
4G\	.	4G\	.	4gg\	.	8g/L	.
.	.	.	.	.	.	8dd/J	.
8r	.	8r	.	8r	.	2gg\	f
8C/	f	8C/	f	8ee-\	f	.	.
8D/L	.	8D/L	.	4b-\	.	.	.
8C/	.	8C/	.	.	.	.	.
8D/	.	8D/	.	4a/	.	4ff#\	.
8DD/J	.	8DD/J	.	.	.	.	.
=18	=18	=18	=18	=18	=18	=18	=18
1GG	.	1GG	.	1g	.	1gg	.
=	=	=	=	=	=	=	=
*-	*-	*-	*-	*-	*-	*-	*-
!!!ENC: Donald Anthony
!!!END: 2004/07//
!!!RWG: not proof-read
